src/catppuccin-frappe-light-cursors/size_fdiag_24.svg

<?xml version="1.0" encoding="UTF-8" standalone="no"?>
<svg
   id="svg5327"
   width="24"
   height="24"
   version="1.1"
   sodipodi:docname="size_fdiag_24.svg"
   inkscape:version="1.1.2 (0a00cf5339, 2022-02-04)"
   xmlns:inkscape="http://www.inkscape.org/namespaces/inkscape"
   xmlns:sodipodi="http://sodipodi.sourceforge.net/DTD/sodipodi-0.dtd"
   xmlns="http://www.w3.org/2000/svg"
   xmlns:svg="http://www.w3.org/2000/svg">
  <path
     style="color:#000000;opacity:0.1;fill:#000000;fill-opacity:1;stroke-linecap:round;stroke-linejoin:round;-inkscape-stroke:none;filter:url(#filter2039)"
     d="M 5.7012533,4.5214031 A 1.0001,1.0001 0 0 0 4.5215658,5.7030437 l 1.2480468,6.0312493 a 1.0001,1.0001 0 0 0 1.9765625,-0.144531 c 0.021153,-0.36464 0.1604856,-0.866653 0.3808594,-1.371094 l 5.6542965,5.654297 c -0.50444,0.220373 -1.006452,0.359706 -1.371094,0.380859 a 1.0001,1.0001 0 0 0 -0.144531,1.976563 l 6.03125,1.248047 a 1.0001,1.0001 0 0 0 1.181641,-1.179688 l -1.242188,-6.037109 a 1.0001,1.0001 0 0 0 -1.978515,0.144531 c -0.02007,0.361543 -0.1576,0.864389 -0.378907,1.369141 L 10.224691,8.1210124 c 0.504751,-0.2213062 1.007596,-0.3588333 1.36914,-0.3789062 A 1.0001,1.0001 0 0 0 11.738362,5.7635906 Z M 6.7871908,6.7850749 8.2032064,7.0760906 C 7.9826529,7.2417859 7.7311067,7.3277438 7.5293783,7.5292156 7.327986,7.7303648 7.2452898,7.9812363 7.0801595,8.2010906 Z m 10.1367182,9.0117181 0.291016,1.416016 -1.416016,-0.292969 c 0.219855,-0.165131 0.470726,-0.247824 0.671875,-0.449219 0.201472,-0.201728 0.28743,-0.453275 0.453125,-0.673828 z"
     id="path1983" />
  <path
     style="color:#000000;fill:#1e1e28;stroke-linecap:round;stroke-linejoin:round;-inkscape-stroke:none;fill-opacity:1"
     d="M 5.2011719,4.0214844 A 1.0001,1.0001 0 0 0 4.0214844,5.203125 l 1.2480468,6.03125 a 1.0001,1.0001 0 0 0 1.9765625,-0.144531 c 0.021153,-0.36464 0.1604856,-0.866653 0.3808594,-1.371094 l 5.6542969,5.654297 c -0.50444,0.220373 -1.006452,0.359706 -1.371094,0.380859 a 1.0001,1.0001 0 0 0 -0.144531,1.976563 l 6.03125,1.248047 a 1.0001,1.0001 0 0 0 1.181641,-1.179688 l -1.242188,-6.037109 a 1.0001,1.0001 0 0 0 -1.978515,0.144531 c -0.02007,0.361543 -0.1576,0.864389 -0.378907,1.369141 L 9.7246094,7.6210937 C 10.229361,7.3997875 10.732206,7.2622604 11.09375,7.2421875 A 1.0001,1.0001 0 0 0 11.238281,5.2636719 Z M 6.2871094,6.2851562 7.703125,6.5761719 C 7.4825715,6.7418672 7.2310253,6.8278251 7.0292969,7.0292969 6.8279046,7.2304461 6.7452084,7.4813176 6.5800781,7.7011719 Z m 10.1367186,9.0117188 0.291016,1.416016 -1.416016,-0.292969 c 0.219855,-0.165131 0.470726,-0.247824 0.671875,-0.449219 0.201472,-0.201728 0.28743,-0.453275 0.453125,-0.673828 z"
     id="path1923" />
  <path
     id="path994"
     style="fill:#C6D0F5;fill-opacity:1;stroke:none;stroke-width:0;stroke-linecap:round;stroke-linejoin:round;stroke-miterlimit:4;stroke-dasharray:none;stroke-dashoffset:0;stroke-opacity:1;paint-order:normal"
     d="M 11.037623,6.2428049 5,5.0000004 6.2481495,11.032278 C 6.3050142,10.052049 6.7984489,8.674103 7.7368421,7.7368425 8.6752672,6.7996112 10.054552,6.2973851 11.037623,6.2428049 Z m 5.719573,5.7195731 c -0.05458,0.98307 -0.556807,2.362354 -1.494038,3.30078 -0.937255,0.938399 -2.315207,1.431828 -3.295436,1.488693 L 18,18 Z M 8.7658304,8.0762753 8.0816199,8.7604857 14.239515,14.918381 14.923725,14.23417 Z"
     sodipodi:nodetypes="ccccccccccccccc" />
  <sodipodi:namedview
     id="namedview13"
     pagecolor="#ffffff"
     bordercolor="#666666"
     borderopacity="1.0"
     inkscape:pageshadow="2"
     inkscape:pageopacity="0.0"
     inkscape:pagecheckerboard="0"
     showgrid="true"
     inkscape:zoom="17.31"
     inkscape:cx="13.229347"
     inkscape:cy="16.002311"
     inkscape:window-width="1896"
     inkscape:window-height="1020"
     inkscape:window-x="9"
     inkscape:window-y="45"
     inkscape:window-maximized="1"
     inkscape:current-layer="svg5327">
    <inkscape:grid
       type="xygrid"
       id="grid1372" />
  </sodipodi:namedview>
  <defs
     id="defs5329">
    <filter
       id="filter937"
       style="color-interpolation-filters:sRGB"
       width="1.152"
       height="1.099"
       x="-0.079999998"
       y="-0.050000001">
      <feGaussianBlur
         id="feGaussianBlur939"
         stdDeviation=".413" />
    </filter>
    <filter
       id="filter939"
       style="color-interpolation-filters:sRGB"
       width="1.12"
       height="1.12"
       x="-0.059999999"
       y="-0.059999999">
      <feGaussianBlur
         id="feGaussianBlur941"
         stdDeviation=".675" />
    </filter>
    <filter
       id="filter820"
       style="color-interpolation-filters:sRGB"
       width="1.144"
       height="1.144"
       x="-0.072000001"
       y="-0.072000002">
      <feGaussianBlur
         id="feGaussianBlur822"
         stdDeviation=".81" />
    </filter>
    <filter
       inkscape:collect="always"
       style="color-interpolation-filters:sRGB"
       id="filter2039"
       x="-0.023456016"
       y="-0.023456016"
       width="1.046912"
       height="1.046912">
      <feGaussianBlur
         inkscape:collect="always"
         stdDeviation="0.1465789"
         id="feGaussianBlur2041" />
    </filter>
  </defs>
</svg>

<svg xmlns="http://www.w3.org/2000/svg" width="24" height="24">
    <path d="M5.701 4.521a1 1 0 0 0-1.18 1.182l1.249 6.031a1 1 0 0 0 1.976-.144c.021-.365.16-.867.381-1.371l5.654 5.654c-.504.22-1.006.36-1.37.38a1 1 0 0 0-.145 1.977l6.031 1.248a1 1 0 0 0 1.182-1.18l-1.243-6.036a1 1 0 0 0-1.978.144c-.02.362-.158.865-.379 1.37L10.225 8.12c.504-.221 1.007-.359 1.369-.379a1 1 0 0 0 .144-1.978Zm1.086 2.264 1.416.291c-.22.166-.472.252-.674.453-.201.201-.284.452-.449.672Zm10.137 9.012.29 1.416-1.415-.293c.22-.165.47-.248.672-.45.201-.201.287-.453.453-.673" style="color:#000;opacity:.1;fill:#000;fill-opacity:1;stroke-linecap:round;stroke-linejoin:round;-inkscape-stroke:none;filter:url(#a)"/>
    <path d="M5.201 4.021a1 1 0 0 0-1.18 1.182l1.249 6.031a1 1 0 0 0 1.976-.144c.021-.365.16-.867.381-1.371l5.654 5.654c-.504.22-1.006.36-1.37.38a1 1 0 0 0-.145 1.977l6.03 1.249a1 1 0 0 0 1.183-1.18l-1.243-6.037a1 1 0 0 0-1.978.144c-.02.362-.158.865-.38 1.37L9.726 7.62c.504-.221 1.007-.359 1.369-.379a1 1 0 0 0 .144-1.978Zm1.086 2.264 1.416.291c-.22.166-.472.252-.674.453-.201.201-.284.452-.449.672Zm10.137 9.012.29 1.416-1.415-.293c.22-.165.47-.248.672-.45.201-.201.287-.453.453-.673" style="color:#000;fill:#1e1e28;stroke-linecap:round;stroke-linejoin:round;-inkscape-stroke:none;fill-opacity:1"/>
    <path d="M11.038 6.243 5 5l1.248 6.032c.057-.98.55-2.358 1.489-3.295.938-.937 2.318-1.44 3.3-1.494m5.72 5.72c-.055.982-.558 2.362-1.495 3.3-.937.939-2.315 1.432-3.295 1.489L18 18ZM8.765 8.075l-.684.684 6.158 6.158.684-.684Z" style="fill:#c6d0f5;fill-opacity:1;stroke:none;stroke-width:0;stroke-linecap:round;stroke-linejoin:round;stroke-miterlimit:4;stroke-dasharray:none;stroke-dashoffset:0;stroke-opacity:1;paint-order:normal"/>
    <defs>
        <filter id="a" width="1.047" height="1.047" x="-.023" y="-.023" style="color-interpolation-filters:sRGB">
            <feGaussianBlur stdDeviation=".147"/>
        </filter>
    </defs>
</svg>
